; generated by PrusaSlicer 2.2.0+win64 on 2020-08-10 at 20:02:40 UTC

; 

; external perimeters extrusion width = 0.45mm
; perimeters extrusion width = 0.45mm
; infill extrusion width = 0.45mm
; solid infill extrusion width = 0.45mm
; top infill extrusion width = 0.40mm
; first layer extrusion width = 0.42mm

M73 P0 R104
M73 Q0 S104
M201 X1000 Y1000 Z200 E5000 ; sets maximum accelerations, mm/sec^2
M203 X200 Y200 Z12 E120 ; sets maximum feedrates, mm/sec
M204 P1250 R1250 T1250 ; sets acceleration (P, T) and retract acceleration (R), mm/sec^2
M205 X8.00 Y8.00 Z0.40 E4.50 ; sets the jerk limits, mm/sec
M205 S0 T0 ; sets the minimum extruding and travel feed rate, mm/sec
M107
M862.3 P "MK3S" ; printer model check
M862.1 P0.4 ; nozzle diameter check
M115 U3.9.0 ; tell printer latest fw version
G90 ; use absolute coordinates
M83 ; extruder relative mode
M104 S215 ; set extruder temp
M140 S60 ; set bed temp
M190 S60 ; wait for bed temp
M109 S215 ; wait for extruder temp
G28 W ; home all without mesh bed level
G80 ; mesh bed leveling
G1 Y-3.0 F1000.0 ; go outside print area
G92 E0.0
G1 X60.0 E9.0 F1000.0 ; intro line
M73 Q0 S104
M73 P0 R104
G1 X100.0 E12.5 F1000.0 ; intro line
G92 E0.0
M221 S95
G21 ; set units to millimeters
G90 ; use absolute coordinates
M83 ; use relative distances for extrusion
M900 K0.06 ; Filament gcode LA 1.5
M900 K30 ; Filament gcode LA 1.0
;BEFORE_LAYER_CHANGE
G92 E0.0
;0.2


G1 E-0.80000 F2100.00000
G1 Z0.600 F10800.000
;AFTER_LAYER_CHANGE
;0.2
G1 X85.049 Y61.166
G1 Z0.200
G1 E0.80000 F2100.00000
M204 S1000
G1 F1200.000
G1 X85.585 Y60.537 E0.02590
G1 X86.235 Y60.100 E0.02456
G1 X86.909 Y59.858 E0.02245
G1 X87.556 Y59.783 E0.02041
G1 X135.201 Y59.783 E1.49390
G1 X136.006 Y59.895 E0.02549
G1 X136.697 Y60.187 E0.02352
G1 X137.340 Y60.685 E0.02549
G1 X137.833 Y61.355 E0.02608
G1 X167.839 Y116.727 E1.97469
G1 X168.606 Y118.341 E0.05603
G1 X169.248 Y120.018 E0.05632
G1 X169.757 Y121.741 E0.05632
G1 X170.124 Y123.476 E0.05561
G1 X170.391 Y125.638 E0.06830
G1 X170.452 Y127.664 E0.06354
G1 X170.223 Y130.595 E0.09220
G1 X169.886 Y132.422 E0.05823
G1 X169.308 Y134.502 E0.06770
G1 X168.591 Y136.394 E0.06342
G1 X167.259 Y139.011 E0.09209
G1 X166.249 Y140.569 E0.05823
G1 X164.920 Y142.271 E0.06770
G1 X163.531 Y143.747 E0.06354
G1 X161.299 Y145.655 E0.09209
G1 X159.766 Y146.710 E0.05835
G1 X157.887 Y147.773 E0.06770
G1 X156.046 Y148.602 E0.06330
G1 X153.250 Y149.513 E0.09220
G1 X151.452 Y149.897 E0.05763
G1 X149.648 Y150.134 E0.05704
G1 X147.858 Y150.226 E0.05620
G1 X146.063 Y150.177 E0.05632
G1 X144.337 Y149.996 E0.05441
G1 X141.906 Y149.513 E0.07771
G1 X140.240 Y149.019 E0.05447
G1 X138.521 Y148.358 E0.05775
G1 X137.108 Y147.691 E0.04899
G1 X135.704 Y146.905 E0.05046
G1 X111.588 Y132.269 E0.88450
G1 X110.150 Y131.144 E0.05725
G1 X95.082 Y114.109 E0.71306
G1 X94.111 Y112.737 E0.05272
G1 X93.635 Y111.645 E0.03735
G1 X84.621 Y84.035 E0.91065
G1 X84.582 Y62.619 E0.67149
G1 X84.728 Y61.839 E0.02489
G1 X85.023 Y61.220 E0.02149
G1 F8640.000
G1 X85.585 Y60.537 E-0.20413
G1 X86.235 Y60.100 E-0.18084
G1 X86.909 Y59.858 E-0.16536
G1 X87.556 Y59.783 E-0.15031
G1 X87.813 Y59.783 E-0.05936
G1 E-0.04000 F2100.00000
G1 Z0.800 F10800.000
G1 X120.788 Y107.257
G1 Z0.200
G1 E0.80000 F2100.00000
G1 F1200.000
G1 X121.087 Y107.062 E0.01119
G1 X121.405 Y106.900 E0.01119
G1 X121.739 Y106.772 E0.01119
G1 X122.083 Y106.680 E0.01119
G1 X122.436 Y106.624 E0.01119
G1 X122.776 Y106.606 E0.01068
G1 X123.149 Y106.624 E0.01169
G1 X123.502 Y106.680 E0.01121
G1 X123.846 Y106.772 E0.01119
G1 X124.180 Y106.900 E0.01119
G1 X124.498 Y107.062 E0.01119
G1 X124.797 Y107.257 E0.01120
G1 X125.075 Y107.482 E0.01121
G1 X125.327 Y107.737 E0.01124
G1 X125.550 Y108.021 E0.01132
G1 X125.734 Y108.336 E0.01145
G1 X125.864 Y108.678 E0.01145
G1 X125.942 Y109.023 E0.01110
G1 X125.987 Y109.361 E0.01071
G1 X126.007 Y109.698 E0.01056
G1 X125.986 Y110.349 E0.02045
G1 X125.933 Y110.683 E0.01060
G1 X125.846 Y111.008 E0.01054
G1 X125.725 Y111.322 E0.01054
G1 X125.573 Y111.621 E0.01054
G1 X125.390 Y111.903 E0.01054
G1 X125.178 Y112.164 E0.01054
G1 X124.941 Y112.402 E0.01054
G1 X124.680 Y112.613 E0.01054
G1 X124.398 Y112.796 E0.01054
G1 X124.098 Y112.949 E0.01054
G1 X123.785 Y113.069 E0.01054
G1 X123.460 Y113.156 E0.01054
G1 X123.128 Y113.209 E0.01054
G1 X122.796 Y113.226 E0.01044
G1 X122.141 Y113.211 E0.02052
G1 X121.799 Y113.165 E0.01082
G1 X121.454 Y113.087 E0.01110
G1 X121.113 Y112.958 E0.01145
G1 X120.798 Y112.773 E0.01145
G1 X120.513 Y112.551 E0.01132
G1 X120.259 Y112.298 E0.01124
G1 X120.033 Y112.021 E0.01121
G1 X119.839 Y111.721 E0.01120
G1 X119.677 Y111.403 E0.01119
G1 X119.549 Y111.070 E0.01119
G1 X119.457 Y110.725 E0.01119
G1 X119.401 Y110.372 E0.01119
G1 X119.382 Y110.016 E0.01119
G1 X119.401 Y109.659 E0.01119
G1 X119.457 Y109.307 E0.01119
G1 X119.549 Y108.962 E0.01119
G1 X119.677 Y108.629 E0.01119
G1 X119.839 Y108.311 E0.01119
G1 X120.033 Y108.011 E0.01119
G1 X120.258 Y107.734 E0.01119
G1 X120.510 Y107.481 E0.01119
G1 X120.741 Y107.295 E0.00931
G1 X120.751 Y106.902 F10800.000
G1 F8640.000
G1 X121.087 Y107.062 E-0.09622
G1 X121.405 Y106.900 E-0.08243
G1 X121.739 Y106.772 E-0.08243
G1 X122.083 Y106.680 E-0.08243
G1 X122.436 Y106.624 E-0.08243
G1 X122.776 Y106.606 E-0.07865
G1 X123.149 Y106.624 E-0.08608
G1 X123.502 Y106.680 E-0.08254
G1 X123.846 Y106.772 E-0.08243
G1 X123.864 Y106.779 E-0.00436
G1 E-0.04000 F2100.00000
G1 Z0.800 F10800.000
G1 X103.070 Y109.659
G1 Z0.200
G1 E0.80000 F2100.00000
G1 F1200.000
G1 X103.089 Y110.016 E0.01119
G1 X103.070 Y110.372 E0.01119
G1 X103.015 Y110.725 E0.01119
G1 X102.922 Y111.070 E0.01119
G1 X102.794 Y111.403 E0.01119
G1 X102.632 Y111.721 E0.01119
G1 X102.438 Y112.021 E0.01120
G1 X102.213 Y112.298 E0.01121
G1 X101.958 Y112.551 E0.01124
G1 X101.673 Y112.773 E0.01132
G1 X101.358 Y112.958 E0.01145
G1 X101.017 Y113.087 E0.01145
G1 X100.672 Y113.165 E0.01110
G1 X100.330 Y113.211 E0.01082
G1 X99.675 Y113.226 E0.02052
G1 X99.343 Y113.209 E0.01044
G1 X99.011 Y113.156 E0.01054
G1 X98.687 Y113.069 E0.01054
G1 X98.373 Y112.949 E0.01054
G1 X98.073 Y112.796 E0.01054
G1 X97.792 Y112.613 E0.01054
G1 X97.530 Y112.402 E0.01054
G1 X97.293 Y112.164 E0.01054
G1 X97.081 Y111.903 E0.01054
G1 X96.898 Y111.621 E0.01054
G1 X96.746 Y111.322 E0.01054
G1 X96.625 Y111.008 E0.01054
G1 X96.538 Y110.683 E0.01054
G1 X96.486 Y110.349 E0.01060
G1 X96.465 Y109.698 E0.02045
G1 X96.484 Y109.361 E0.01056
G1 X96.529 Y109.023 E0.01070
G1 X96.603 Y108.690 E0.01069
G1 X96.737 Y108.337 E0.01186
G1 X96.921 Y108.021 E0.01146
G1 X97.144 Y107.737 E0.01132
G1 X97.396 Y107.482 E0.01124
G1 X97.674 Y107.257 E0.01121
G1 X97.973 Y107.062 E0.01120
G1 X98.291 Y106.900 E0.01119
G1 X98.625 Y106.772 E0.01119
G1 X98.969 Y106.680 E0.01119
G1 X99.322 Y106.624 E0.01119
G1 X99.662 Y106.606 E0.01068
G1 X100.035 Y106.624 E0.01169
G1 X100.388 Y106.680 E0.01121
G1 X100.732 Y106.772 E0.01119
G1 X101.066 Y106.900 E0.01119
G1 X101.384 Y107.062 E0.01119
G1 X101.683 Y107.257 E0.01119
G1 X101.961 Y107.481 E0.01119
G1 X102.213 Y107.734 E0.01119
G1 X102.438 Y108.011 E0.01119
G1 X102.632 Y108.311 E0.01119
G1 X102.794 Y108.629 E0.01119
G1 X102.922 Y108.962 E0.01119
G1 X103.015 Y109.307 E0.01119
G1 X103.061 Y109.600 E0.00931
G1 X103.397 Y109.805 F10800.000
G1 F8640.000
G1 X103.089 Y110.016 E-0.09622
G1 X103.070 Y110.372 E-0.08243
G1 X103.015 Y110.725 E-0.08243
G1 X102.922 Y111.070 E-0.08243
G1 X102.794 Y111.403 E-0.08243
G1 X102.632 Y111.721 E-0.08243
G1 X102.438 Y112.021 E-0.08245
G1 X102.213 Y112.298 E-0.08252
G1 X101.958 Y112.551 E-0.08281
G1 X101.945 Y112.561 E-0.00385
G1 E-0.04000 F2100.00000
G1 Z0.800 F10800.000
G1 X103.549 Y67.142
G1 Z0.200
G1 E0.80000 F2100.00000
G1 F1200.000
G1 X103.165 Y67.111 E0.01209
G1 X102.834 Y67.023 E0.01074
G1 X102.480 Y66.858 E0.01223
G1 X102.174 Y66.634 E0.01189
G1 X101.961 Y66.421 E0.00946
G1 X101.760 Y66.142 E0.01078
G1 X101.593 Y65.797 E0.01199
G1 X101.494 Y65.422 E0.01217
G1 X101.465 Y65.081 E0.01074
G1 X101.494 Y64.740 E0.01074
G1 X101.593 Y64.366 E0.01212
G1 X101.740 Y64.052 E0.01086
G1 X101.965 Y63.740 E0.01208
G1 X102.185 Y63.528 E0.00959
G1 X102.543 Y63.297 E0.01336
G1 X102.837 Y63.195 E0.00975
G1 X103.195 Y63.139 E0.01136
G1 X103.511 Y63.123 E0.00990
G1 X103.856 Y63.139 E0.01084
G1 X104.180 Y63.184 E0.01026
G1 X104.511 Y63.296 E0.01094
G1 X104.869 Y63.528 E0.01338
G1 X105.091 Y63.740 E0.00962
G1 X105.293 Y64.020 E0.01083
G1 X105.461 Y64.364 E0.01201
G1 X105.561 Y64.740 E0.01217
G1 X105.589 Y65.081 E0.01074
G1 X105.561 Y65.422 E0.01074
G1 X105.461 Y65.796 E0.01212
G1 X105.317 Y66.105 E0.01070
G1 X105.094 Y66.421 E0.01212
G1 X104.850 Y66.664 E0.01080
G1 X104.533 Y66.880 E0.01202
G1 X104.219 Y67.023 E0.01083
G1 X103.892 Y67.111 E0.01060
G1 X103.609 Y67.137 E0.00893
G1 X103.357 Y67.477 F10800.000
G1 F8640.000
G1 X103.165 Y67.111 E-0.10268
G1 X102.834 Y67.023 E-0.07907
G1 X102.480 Y66.858 E-0.09006
G1 X102.174 Y66.634 E-0.08756
G1 X101.961 Y66.421 E-0.06965
G1 X101.760 Y66.142 E-0.07937
G1 X101.593 Y65.797 E-0.08832
G1 X101.494 Y65.422 E-0.08962
G1 X101.467 Y65.104 E-0.07366
G1 E-0.04000 F2100.00000
G1 Z0.800 F10800.000
G1 X117.209 Y65.422
G1 Z0.200
G1 E0.80000 F2100.00000
G1 F1200.000
G1 X117.181 Y65.081 E0.01074
G1 X117.209 Y64.740 E0.01074
G1 X117.309 Y64.364 E0.01217
G1 X117.477 Y64.020 E0.01201
G1 X117.679 Y63.740 E0.01083
G1 X117.901 Y63.528 E0.00962
G1 X118.259 Y63.297 E0.01336
G1 X118.553 Y63.195 E0.00976
G1 X118.911 Y63.139 E0.01136
G1 X119.226 Y63.123 E0.00990
G1 X119.572 Y63.139 E0.01084
G1 X119.896 Y63.184 E0.01026
G1 X120.226 Y63.296 E0.01094
G1 X120.585 Y63.528 E0.01338
G1 X120.806 Y63.740 E0.00962
G1 X121.009 Y64.020 E0.01083
G1 X121.176 Y64.364 E0.01201
G1 X121.276 Y64.740 E0.01217
G1 X121.305 Y65.081 E0.01074
G1 X121.276 Y65.422 E0.01074
G1 X121.177 Y65.796 E0.01212
G1 X121.030 Y66.111 E0.01089
G1 X120.809 Y66.421 E0.01195
G1 X120.565 Y66.664 E0.01079
G1 X120.249 Y66.880 E0.01202
G1 X119.934 Y67.023 E0.01083
G1 X119.608 Y67.111 E0.01060
G1 X119.264 Y67.142 E0.01081
G1 X118.880 Y67.111 E0.01209
G1 X118.549 Y67.023 E0.01074
G1 X118.196 Y66.858 E0.01223
G1 X117.889 Y66.634 E0.01189
G1 X117.676 Y66.421 E0.00946
G1 X117.476 Y66.142 E0.01078
G1 X117.309 Y65.797 E0.01199
G1 X117.225 Y65.480 E0.01029
G1 X116.888 Y65.305 F10800.000
G1 F8640.000
G1 X117.181 Y65.081 E-0.09276
G1 X117.209 Y64.740 E-0.07909
G1 X117.309 Y64.364 E-0.08965
G1 X117.477 Y64.020 E-0.08844
G1 X117.679 Y63.740 E-0.07977
G1 X117.901 Y63.528 E-0.07084
G1 X118.259 Y63.297 E-0.09842
G1 X118.553 Y63.195 E-0.07184
G1 X118.911 Y63.139 E-0.08368
G1 X118.935 Y63.138 E-0.00552
G1 E-0.04000 F2100.00000
G1 Z0.800 F10800.000
G1 X112.023 Y94.754
G1 Z0.200
G1 E0.80000 F2100.00000
G1 F1200.000
G1 X112.406 Y94.856 E0.01243
G1 X112.776 Y94.998 E0.01243
G1 X113.130 Y95.178 E0.01243
G1 X113.462 Y95.394 E0.01243
G1 X113.770 Y95.644 E0.01243
G1 X114.051 Y95.924 E0.01243
G1 X114.300 Y96.232 E0.01243
G1 X114.516 Y96.565 E0.01243
G1 X114.696 Y96.918 E0.01243
G1 X114.838 Y97.288 E0.01243
G1 X114.941 Y97.671 E0.01243
G1 X115.003 Y98.063 E0.01243
G1 X115.024 Y98.459 E0.01243
G1 X115.003 Y98.855 E0.01243
G1 X114.941 Y99.247 E0.01243
G1 X114.838 Y99.630 E0.01243
G1 X114.696 Y100.000 E0.01243
G1 X114.516 Y100.353 E0.01243
G1 X114.300 Y100.686 E0.01243
G1 X114.051 Y100.994 E0.01243
G1 X113.770 Y101.274 E0.01243
G1 X113.462 Y101.524 E0.01243
G1 X113.130 Y101.740 E0.01243
G1 X112.776 Y101.920 E0.01243
G1 X112.406 Y102.062 E0.01243
G1 X112.023 Y102.164 E0.01243
G1 X111.632 Y102.226 E0.01243
G1 X111.236 Y102.247 E0.01243
G1 X110.840 Y102.226 E0.01243
G1 X110.448 Y102.164 E0.01243
G1 X110.065 Y102.062 E0.01243
G1 X109.695 Y101.920 E0.01243
G1 X109.341 Y101.740 E0.01243
G1 X109.009 Y101.524 E0.01243
G1 X108.701 Y101.274 E0.01243
G1 X108.420 Y100.994 E0.01243
G1 X108.171 Y100.686 E0.01243
G1 X107.955 Y100.353 E0.01243
G1 X107.775 Y100.000 E0.01243
G1 X107.642 Y99.653 E0.01165
G1 X107.530 Y99.249 E0.01314
G1 X107.468 Y98.855 E0.01249
G1 X107.447 Y98.459 E0.01243
G1 X107.468 Y98.063 E0.01243
G1 X107.530 Y97.671 E0.01243
G1 X107.633 Y97.288 E0.01243
G1 X107.775 Y96.918 E0.01243
G1 X107.955 Y96.565 E0.01243
G1 X108.171 Y96.232 E0.01243
G1 X108.420 Y95.924 E0.01243
G1 X108.701 Y95.644 E0.01243
G1 X109.009 Y95.394 E0.01243
G1 X109.341 Y95.178 E0.01243
G1 X109.695 Y94.998 E0.01243
G1 X110.065 Y94.856 E0.01243
G1 X110.448 Y94.754 E0.01243
G1 X110.840 Y94.692 E0.01243
G1 X111.211 Y94.672 E0.01165
G1 X111.630 Y94.691 E0.01314
G1 X111.964 Y94.744 E0.01061
G1 X111.905 Y95.117 F10800.000
G1 F1200.000
G1 X112.289 Y95.215 E0.01245
G1 X112.623 Y95.343 E0.01119
G1 X112.941 Y95.505 E0.01119
G1 X113.240 Y95.700 E0.01119
G1 X113.518 Y95.924 E0.01119
G1 X113.770 Y96.177 E0.01119
G1 X113.995 Y96.454 E0.01119
G1 X114.189 Y96.754 E0.01119
G1 X114.351 Y97.072 E0.01119
G1 X114.479 Y97.405 E0.01119
G1 X114.572 Y97.750 E0.01119
G1 X114.627 Y98.102 E0.01119
G1 X114.646 Y98.459 E0.01119
G1 X114.627 Y98.815 E0.01119
G1 X114.572 Y99.168 E0.01119
G1 X114.479 Y99.513 E0.01119
G1 X114.351 Y99.846 E0.01119
G1 X114.189 Y100.164 E0.01119
G1 X113.995 Y100.464 E0.01119
G1 X113.770 Y100.741 E0.01119
G1 X113.518 Y100.994 E0.01119
G1 X113.240 Y101.218 E0.01119
G1 X112.941 Y101.413 E0.01119
G1 X112.623 Y101.575 E0.01119
G1 X112.289 Y101.703 E0.01119
G1 X111.945 Y101.795 E0.01119
G1 X111.592 Y101.851 E0.01119
G1 X111.236 Y101.870 E0.01119
G1 X110.879 Y101.851 E0.01119
G1 X110.526 Y101.795 E0.01119
G1 X110.182 Y101.703 E0.01119
G1 X109.848 Y101.575 E0.01119
G1 X109.530 Y101.413 E0.01119
G1 X109.231 Y101.218 E0.01119
G1 X108.953 Y100.994 E0.01119
G1 X108.701 Y100.741 E0.01119
G1 X108.476 Y100.464 E0.01119
G1 X108.282 Y100.164 E0.01119
G1 X108.120 Y99.846 E0.01119
G1 X108.000 Y99.535 E0.01046
G1 X107.900 Y99.169 E0.01191
G1 X107.844 Y98.815 E0.01122
G1 X107.825 Y98.459 E0.01119
G1 X107.844 Y98.102 E0.01119
G1 X107.900 Y97.750 E0.01119
G1 X107.992 Y97.405 E0.01119
G1 X108.120 Y97.072 E0.01119
G1 X108.282 Y96.754 E0.01119
G1 X108.476 Y96.454 E0.01119
G1 X108.701 Y96.177 E0.01119
G1 X108.953 Y95.924 E0.01119
G1 X109.231 Y95.700 E0.01119
G1 X109.530 Y95.505 E0.01119
G1 X109.848 Y95.343 E0.01119
G1 X110.182 Y95.215 E0.01119
G1 X110.526 Y95.123 E0.01119
G1 X110.879 Y95.067 E0.01119
G1 X111.212 Y95.050 E0.01046
G1 X111.591 Y95.067 E0.01191
G1 X111.846 Y95.107 E0.00807
G1 X112.168 Y94.819 F10800.000
G1 F8640.000
G1 X112.289 Y95.215 E-0.10548
G1 X112.623 Y95.343 E-0.08243
G1 X112.941 Y95.505 E-0.08243
G1 X113.240 Y95.700 E-0.08243
G1 X113.518 Y95.924 E-0.08243
G1 X113.770 Y96.177 E-0.08243
G1 X113.995 Y96.454 E-0.08243
G1 X114.189 Y96.754 E-0.08243
G1 X114.342 Y97.053 E-0.07751
G1 E-0.04000 F2100.00000
G1 Z0.800 F10800.000
G1 X104.719 Y82.925
G1 Z0.200
G1 E0.80000 F2100.00000
G1 F1200.000
G1 X104.347 Y83.095 E0.01284
G1 X103.959 Y83.199 E0.01260
G1 X103.551 Y83.236 E0.01284
G1 X103.100 Y83.200 E0.01418
G1 X102.704 Y83.094 E0.01285
G1 X102.288 Y82.899 E0.01442
G1 X101.928 Y82.637 E0.01395
G1 X101.672 Y82.381 E0.01135
G1 X101.435 Y82.050 E0.01276
G1 X101.238 Y81.645 E0.01414
G1 X101.121 Y81.202 E0.01435
G1 X101.087 Y80.796 E0.01277
G1 X101.121 Y80.390 E0.01277
G1 X101.237 Y79.952 E0.01421
G1 X101.413 Y79.576 E0.01301
G1 X101.672 Y79.211 E0.01404
G1 X101.964 Y78.922 E0.01288
G1 X102.335 Y78.668 E0.01411
G1 X102.708 Y78.498 E0.01284
G1 X103.096 Y78.394 E0.01260
G1 X103.504 Y78.357 E0.01284
G1 X103.954 Y78.393 E0.01418
G1 X104.350 Y78.499 E0.01285
G1 X104.767 Y78.694 E0.01442
G1 X105.126 Y78.956 E0.01395
G1 X105.382 Y79.212 E0.01135
G1 X105.619 Y79.542 E0.01275
G1 X105.816 Y79.948 E0.01414
G1 X105.934 Y80.390 E0.01435
G1 X105.968 Y80.796 E0.01277
G1 X105.934 Y81.202 E0.01277
G1 X105.817 Y81.640 E0.01421
G1 X105.645 Y82.011 E0.01281
G1 X105.383 Y82.381 E0.01421
G1 X105.091 Y82.671 E0.01291
G1 X104.769 Y82.891 E0.01223
G1 X104.556 Y82.580 F10800.000
G1 F1200.000
G1 X104.219 Y82.739 E0.01168
G1 X103.892 Y82.826 E0.01060
G1 X103.549 Y82.858 E0.01081
G1 X103.165 Y82.827 E0.01209
G1 X102.834 Y82.738 E0.01074
G1 X102.480 Y82.573 E0.01223
G1 X102.174 Y82.350 E0.01189
G1 X101.961 Y82.136 E0.00946
G1 X101.760 Y81.857 E0.01078
G1 X101.593 Y81.513 E0.01199
